X:1
T:The Gaelforce March
M:6/8
L:1/8
Q:80
C:R Matheson
S:March
K:HP
|: A | \
a3/2f/2d{g}A3/2d/2f | \
g3/2{a}f/2g{Bd}B2d | \
{gcd}c3/2e/2a{f}g3/2e/2{g}c |
{gde}d3/2c/2d{gfg}f2d | \
a3/2f/2d{g}A3/2d/2f | \
g3/2{a}f/2g{Bd}B2d |
{gcd}c3/2a/2{g}a{f}g3/2e/2{g}c | \
{Gdc}d3{gdG}d2 :: \
A |
{g}d3/2a/2{g}a{g}a3/2f/2d | \
{gcd}c3/2e/2a{Bd}B2{d}c | \
{gBd}B3/2d/2g{a}g3/2d/2B |
{g}A3/2a/2Ba3/2c/2a | \
d3/2a/2{g}a{g}a3/2f/2d | \
{gcd}c3/2e/2a{Bd}B2d |
{gcd}c3/2a/2{g}a{f}g3/2e/2{g}c | \
{Gdc}d3{gdG}d2 :|
